svg/Mapbox-maki/rail-metro-12.svg

<?xml version="1.0" encoding="UTF-8" standalone="no"?>
<!-- Created with Inkscape (http://www.inkscape.org/) -->

<svg
   xmlns:dc="http://purl.org/dc/elements/1.1/"
   xmlns:cc="http://creativecommons.org/ns#"
   xmlns:rdf="http://www.w3.org/1999/02/22-rdf-syntax-ns#"
   xmlns:svg="http://www.w3.org/2000/svg"
   xmlns="http://www.w3.org/2000/svg"
   xmlns:sodipodi="http://sodipodi.sourceforge.net/DTD/sodipodi-0.dtd"
   xmlns:inkscape="http://www.inkscape.org/namespaces/inkscape"
   width="12"
   height="12"
   id="svg4764"
   version="1.1"
   inkscape:version="0.48.2 r9819"
   sodipodi:docname="rail-metro-12.svg">
  <defs
     id="defs4766" />
  <sodipodi:namedview
     id="base"
     pagecolor="#ffffff"
     bordercolor="#666666"
     borderopacity="1.0"
     inkscape:pageopacity="0.0"
     inkscape:pageshadow="2"
     inkscape:zoom="16"
     inkscape:cx="5.3200456"
     inkscape:cy="7.6888355"
     inkscape:document-units="px"
     inkscape:current-layer="layer1"
     showgrid="true"
     showguides="true"
     inkscape:guide-bbox="true"
     inkscape:window-width="1189"
     inkscape:window-height="938"
     inkscape:window-x="179"
     inkscape:window-y="0"
     inkscape:window-maximized="0">
    <inkscape:grid
       type="xygrid"
       id="grid4772"
       empspacing="2"
       visible="true"
       enabled="true"
       snapvisiblegridlinesonly="true"
       color="#ff00ff"
       opacity="0.1254902"
       empcolor="#ff00ff"
       empopacity="0.25098039" />
    <sodipodi:guide
       orientation="0,1"
       position="2,12"
       id="guide4789" />
    <sodipodi:guide
       orientation="1,0"
       position="12,10"
       id="guide4791" />
    <sodipodi:guide
       orientation="0,1"
       position="10,0"
       id="guide4793" />
    <sodipodi:guide
       orientation="1,0"
       position="0,9"
       id="guide4795" />
    <sodipodi:guide
       orientation="0,1"
       position="5,11"
       id="guide4797" />
    <sodipodi:guide
       orientation="1,0"
       position="11,7"
       id="guide4799" />
    <sodipodi:guide
       orientation="0,1"
       position="9,2"
       id="guide4801" />
    <sodipodi:guide
       orientation="1,0"
       position="2,5"
       id="guide4803" />
  </sodipodi:namedview>
  <metadata
     id="metadata4769">
    <rdf:RDF>
      <cc:Work
         rdf:about="">
        <dc:format>image/svg+xml</dc:format>
        <dc:type
           rdf:resource="http://purl.org/dc/dcmitype/StillImage" />
        <dc:title />
      </cc:Work>
    </rdf:RDF>
  </metadata>
  <g
     inkscape:label="Layer 1"
     inkscape:groupmode="layer"
     id="layer1"
     transform="translate(0,-1040.3622)">
    <path
       style="font-size:medium;font-style:normal;font-variant:normal;font-weight:normal;font-stretch:normal;text-indent:0;text-align:start;text-decoration:none;line-height:normal;letter-spacing:normal;word-spacing:normal;text-transform:none;direction:ltr;block-progression:tb;writing-mode:lr-tb;text-anchor:start;baseline-shift:baseline;color:#000000;fill:#ffffff;fill-opacity:1;stroke:none;stroke-width:2;marker:none;visibility:visible;display:inline;overflow:visible;enable-background:accumulate;font-family:Sans;-inkscape-font-specification:Sans;opacity:0.3"
       d="M 4.90625,0 C 4.6736869,0.017 4.4482242,0.11845 4.28125,0.28125 l -1,1 C 3.0975571,1.47105 2.9938957,1.736 3,2 L 3,7 3,8 C 2.4764155,8.0000524 2.0000524,8.4764155 2,9 l 0,1 c 5.24e-5,0.523584 0.4764155,0.999948 1,1 l 3,0 c 0.1844845,-1.8e-5 0.3460107,-0.05673 0.5,-0.15625 C 6.6539893,10.943266 6.8155155,10.999982 7,11 l 3,0 c 0.523584,-5.2e-5 0.999948,-0.476416 1,-1 L 11,9 C 10.999948,8.4764155 10.523584,8.0000524 10,8 L 10,7 10,2 C 10.0061,1.736 9.902443,1.47105 9.71875,1.28125 l -1,-1 C 8.5289802,0.09755 8.2640632,-0.0061 8,0 6.96875,0 5.9375,0 4.90625,0 z"
       transform="translate(0,1040.3622)"
       id="path3088"
       inkscape:connector-curvature="0"
       sodipodi:nodetypes="cccccccccccccccccccccc" />
    <path
       style="fill:#444444;fill-opacity:1;stroke:none"
       d="M 5 1 L 4 2 L 4 7 L 4 8 L 9 8 L 9 7 L 9 2 L 8 1 L 5 1 z M 6 2 L 7 2 L 8 3 L 8 4 L 5 4 L 5 3 L 6 2 z M 5 6 L 6 6 L 6 7 L 5 7 L 5 6 z M 7 6 L 8 6 L 8 7 L 7 7 L 7 6 z "
       transform="translate(0,1040.3622)"
       id="path3108" />
    <path
       style="fill:#444444;fill-opacity:1;stroke:none"
       d="m 4,1048.8622 0,0.5 -1,0 0,1 3,0 0,-1 0,-0.5 z"
       id="path3266"
       inkscape:connector-curvature="0"
       sodipodi:nodetypes="cccccccc" />
    <path
       sodipodi:nodetypes="cccccccc"
       inkscape:connector-curvature="0"
       id="path3268"
       d="m 9,1048.8622 -2.02167,0 0.02167,0.5 0,1 3,0 0,-1 -1,0 z"
       style="fill:#444444;fill-opacity:1;stroke:none" />
  </g>
</svg>

<svg xmlns="http://www.w3.org/2000/svg" viewBox="0 0 12 12"><g transform="translate(0-1040.36)"><g transform="translate(0 1040.36)"><path d="m4.906 0c-.233.017-.458.118-.625.281l-1 1c-.184.19-.287.455-.281.719v5 1c-.524 0-1 .476-1 1v1c0 .524.476 1 1 1h3c.184 0 .346-.057.5-.156.154.1.316.156.5.156h3c.524 0 1-.476 1-1v-1c0-.524-.476-1-1-1v-1-5c.006-.264-.098-.529-.281-.719l-1-1c-.19-.184-.455-.287-.719-.281-1.031 0-2.063 0-3.094 0" opacity=".3" color="#000" fill="#fff"/><path d="m5 1l-1 1v5 1h5v-1-5l-1-1h-3m1 1h1l1 1v1h-3v-1l1-1m-1 4h1v1h-1v-1m2 0h1v1h-1v-1" fill="#444"/></g><g fill="#444"><path d="m4 1048.86v.5h-1v1h3v-1-.5z"/><path d="m9 1048.86h-2.02l.022.5v1h3v-1h-1z"/></g></g></svg>
